X: 5423
T: Bulgarian, The
R: polka
M: 2/4
K: Aminor
|:(3cdB|A>ec>e A2 c>e|G>AB>c d>cB>G|
A>ec>e A>ec<e|d>c (3BAG A2:|
|:c>B|A>Bc>d e<f (3eee|g>c (3ccc d>cB>^d2|
e>fe>d c<AA>c|d>cB<^G A2:|

